X:41
T:Amalie Vals *
R:waltz
S:http://www.dafo.dk/spillemand/
N:n3
B:Frederik Vilhelm Lind - Gullestrup 1867-95
O:Danmark
Z:<anamnese@laposte.net>
M:3/4
L:1/8
Q:1/4=135
K:G
B2 A G2 | c2 A A2 | d2 A B2 | e6 | d2 A G2 |B6 | A2 D2 E2 |
F2 G2 A2 | B2 A G2 | c2 A A2 | d2 A B2 | e6 | E2 F2 G2 | (D4B2) |
(B4A2) | G2 A A :||:
K:D
